img/scrollUp.svg

<?xml version="1.0" encoding="UTF-8"?>
<svg width="20.078mm" height="11.225mm" version="1.1" viewBox="0 0 20.078142 11.225017" xmlns="http://www.w3.org/2000/svg" xmlns:cc="http://creativecommons.org/ns#" xmlns:dc="http://purl.org/dc/elements/1.1/" xmlns:rdf="http://www.w3.org/1999/02/22-rdf-syntax-ns#">
<defs>
<clipPath id="a">
<path d="m0 0h77.167v44.667h-77.167z"/>
</clipPath>
</defs>
<g transform="translate(-25.043 -190.65)">
<g transform="matrix(.26458 0 0 .26458 14.738 188.24)">
<path d="m75.886 1.9211v13.608l-37.303 27.536-37.303-27.536v-13.608l37.303 27.376z" fill-opacity="0"/>
<g transform="translate(38.307 8.3001)" fill="#5a5a5a" stroke="#5a5a5a">
<path d="m1.2808 42.585v-13.768l37.303-27.376 37.303 27.376v13.768l-37.303-27.536z" fill-rule="evenodd"/>
<path d="m1.2808 42.585v-13.768l37.303-27.376 37.303 27.376v13.768l-37.303-27.536z" clip-path="url(#a)" stroke-linecap="round" stroke-linejoin="round" stroke-width="1.2808px"/>
</g>
</g>
</g>
</svg>

<svg xmlns="http://www.w3.org/2000/svg" width="76" height="43" viewBox="0 0 20.078 11.225"><defs><clipPath id="A"><path d="M0 0h77.167v44.667H0z"/></clipPath></defs><g transform="matrix(.26458 0 0 .26458 -10.305 -2.41)"><path d="M75.886 1.92V15.53L38.583 43.065 1.28 15.53V1.92l37.303 27.376z" fill-opacity="0"/><g fill="#5a5a5a" stroke="#5a5a5a"><path d="M39.588 50.885V37.117L76.89 9.74l37.303 27.376v13.768L76.89 23.35z" fill-rule="evenodd"/><path d="M1.28 42.585V28.817L38.584 1.44l37.303 27.376v13.768L38.584 15.05z" clip-path="url(#A)" stroke-linejoin="round" stroke-width="1.281" transform="translate(38.307 8.3)"/></g></g></svg>
